teeny/solid/git-pull.svg

<svg width="15" height="15" viewBox="0 0 15 15" fill="none" xmlns="http://www.w3.org/2000/svg">
<path d="M2.5 0C1.11929 0 0 1.11929 0 2.5C0 3.70948 0.85888 4.71836 2 4.94999V10.05C0.85888 10.2816 0 11.2905 0 12.5C0 13.8807 1.11929 15 2.5 15C3.88071 15 5 13.8807 5 12.5C5 11.2905 4.14112 10.2816 3 10.05V4.94999C4.14112 4.71836 5 3.70948 5 2.5C5 1.11929 3.88071 0 2.5 0Z" fill="black"/>
<path d="M8.85355 0.853554L8.14645 0.146446L5.79289 2.5L8.14645 4.85355L8.85355 4.14645L7.70711 3H9.5C10.8807 3 12 4.11929 12 5.5V7.05001C10.8589 7.28164 10 8.29052 10 9.5C10 10.8807 11.1193 12 12.5 12C13.8807 12 15 10.8807 15 9.5C15 8.29052 14.1411 7.28164 13 7.05001V5.5C13 3.567 11.433 2 9.5 2H7.70711L8.85355 0.853554Z" fill="black"/>
</svg>

<svg viewBox="0 0 15 15" xmlns="http://www.w3.org/2000/svg"><g><path d="M2.5 0C1.11 0 0 1.11 0 2.5c0 1.2.85 2.21 2 2.44v5.1c-1.15.23-2 1.24-2 2.45 0 1.38 1.11 2.5 2.5 2.5 1.38 0 2.5-1.12 2.5-2.5 0-1.21-.86-2.22-2-2.45V4.93c1.14-.24 2-1.25 2-2.45 0-1.39-1.12-2.5-2.5-2.5Z"/><path d="M8.85.85L8.14.14 5.78 2.49l2.35 2.35 .7-.71 -1.15-1.15h1.79c1.38 0 2.5 1.11 2.5 2.5v1.55c-1.15.23-2 1.24-2 2.44 0 1.38 1.11 2.5 2.5 2.5 1.38 0 2.5-1.12 2.5-2.5 0-1.21-.86-2.22-2-2.45V5.46c0-1.94-1.57-3.5-3.5-3.5h-1.8L8.81.81Z"/></g></svg>
